tools/download-figma-icons/icons/outlined-medium/gas-plant.svg

<svg width="24" height="24" viewBox="0 0 24 24" fill="none" xmlns="http://www.w3.org/2000/svg">
<path fill-rule="evenodd" clip-rule="evenodd" d="M6.72593 20.2873H16.6843C17.0841 20.2873 17.4096 19.9611 17.4096 19.5613V19.0213H5.99994V19.5613C5.99994 19.9611 6.32544 20.2873 6.72593 20.2873ZM15.0253 22.4998H8.38491V21.7873H15.0253V22.4998ZM17.4096 17.5213H5.99994V8.50868H17.4096V17.5213ZM7.83142 5.74194H6.72593C6.32544 5.74194 5.99994 6.06744 5.99994 6.46719V7.00868H17.4096V6.46719C17.4096 6.06744 17.0841 5.74194 16.6843 5.74194H15.5773H7.83142ZM8.93841 1.49998C8.74116 1.49998 8.58141 1.65973 8.58141 1.85698V4.24196H10.4826V3.37647C10.4826 2.96247 10.8186 2.62647 11.2326 2.62647H12.0321C12.4461 2.62647 12.7821 2.96247 12.7821 3.37647V4.24196H14.8274V1.85698C14.8274 1.65973 14.6684 1.49998 14.4711 1.49998H8.93841ZM16.3273 4.24196H16.6843C17.9113 4.24196 18.9096 5.24095 18.9096 6.46718V19.5613C18.9096 20.789 17.9113 21.7873 16.6843 21.7873H16.5253V23.0225C16.5253 23.5618 16.0866 23.9998 15.5473 23.9998H7.86142C7.32293 23.9998 6.88493 23.5618 6.88493 23.0225V21.7873H6.72593C5.49819 21.7873 4.49995 20.789 4.49995 19.5613V6.46718C4.49995 5.24095 5.49819 4.24196 6.72593 4.24196H7.08143V1.85698C7.08143 0.833242 7.91467 0 8.93841 0H14.4711C15.4948 0 16.3273 0.833242 16.3273 1.85698V4.24196ZM11.8463 11.6073C11.3213 11.692 10.0928 11.9583 9.99155 12.6145C9.8273 13.6847 10.548 13.8767 10.6313 13.8955C10.6388 13.897 10.6478 13.8992 10.6568 13.9015C10.7963 13.936 12.0218 14.1977 12.6278 13.0128C12.9375 12.409 13.0793 11.8023 13.1408 11.3148C12.651 11.4625 12.171 11.5548 11.8463 11.6073ZM8.72105 16.0262C8.7008 15.9422 8.57856 15.3062 8.9723 14.491C8.60331 14.0162 8.36331 13.3353 8.50881 12.3865C8.63556 11.5623 9.2768 10.501 11.6078 10.1268C12.4245 9.99553 13.1385 9.77654 13.518 9.54029C13.734 9.40604 14.0047 9.39179 14.2357 9.50054C14.466 9.61004 14.625 9.82904 14.658 10.0825C14.667 10.156 14.8792 11.9088 13.9628 13.6967C13.2555 15.079 12.0135 15.4487 11.0738 15.4487C10.7715 15.4487 10.5008 15.4112 10.2885 15.355C10.2805 15.3533 10.2716 15.3502 10.2628 15.3471C10.2559 15.3447 10.249 15.3424 10.2428 15.3407C10.1768 15.553 10.1843 15.6947 10.1858 15.7045C10.2458 16.1012 9.98479 16.4935 9.59105 16.57C9.5393 16.5797 9.48905 16.585 9.43955 16.585C9.10205 16.585 8.8028 16.366 8.72105 16.0262Z" fill="black"/>
</svg>

<svg width="24" height="24" viewBox="0 0 24 24" fill="none" xmlns="http://www.w3.org/2000/svg"><path fill-rule="evenodd" clip-rule="evenodd" d="M6.726 20.287h9.958c.4 0 .726-.326.726-.726v-.54H6v.54c0 .4.325.726.726.726Zm8.3 2.213H8.384v-.713h6.64v.713Zm2.384-4.979H6V8.51h11.41v9.012ZM7.83 5.741H6.726c-.4 0-.726.326-.726.726v.542h11.41v-.542c0-.4-.326-.725-.726-.725H7.831ZM8.938 1.5a.357.357 0 0 0-.357.357v2.385h1.902v-.866a.75.75 0 0 1 .75-.75h.8a.75.75 0 0 1 .75.75v.866h2.044V1.857a.356.356 0 0 0-.356-.357H8.938Zm7.39 2.742h.356c1.227 0 2.226.999 2.226 2.225v13.094a2.228 2.228 0 0 1-2.226 2.226h-.159v1.236a.978.978 0 0 1-.978.977H7.861a.978.978 0 0 1-.976-.977v-1.236h-.16A2.228 2.228 0 0 1 4.5 19.561V6.467c0-1.226.998-2.225 2.226-2.225h.355V1.857A1.86 1.86 0 0 1 8.938 0h5.533c1.024 0 1.856.833 1.856 1.857v2.385Zm-4.482 7.365c-.525.085-1.753.351-1.854 1.008-.165 1.07.556 1.262.64 1.28a.525.525 0 0 1 .025.007c.14.034 1.365.296 1.97-.89a5.15 5.15 0 0 0 .514-1.697c-.49.148-.97.24-1.295.292Zm-3.125 4.42c-.02-.085-.142-.72.251-1.536-.369-.475-.609-1.156-.463-2.104.127-.825.768-1.886 3.099-2.26.816-.131 1.53-.35 1.91-.587a.753.753 0 0 1 1.14.543c.009.073.221 1.826-.695 3.614-.707 1.382-1.95 1.752-2.89 1.752a3.13 3.13 0 0 1-.83-.108 1.053 1.053 0 0 0-.057.364.766.766 0 0 1-.746.88.73.73 0 0 1-.719-.559Z" fill="currentColor"/></svg>
